resources/haticons/SVG/book1.svg

<!-- Generated by IcoMoon.io -->
<svg version="1.1" xmlns="http://www.w3.org/2000/svg" width="24" height="24" viewBox="0 0 24 24">
<title>book1</title>
<path d="M6 3.984v8.016l2.484-1.5 2.531 1.5v-8.016h-5.016zM18 2.016q0.797 0 1.406 0.586t0.609 1.383v16.031q0 0.797-0.609 1.383t-1.406 0.586h-12q-0.797 0-1.406-0.586t-0.609-1.383v-16.031q0-0.797 0.609-1.383t1.406-0.586h12z"></path>
</svg>

<svg xmlns="http://www.w3.org/2000/svg" width="24" height="24"><path d="M6 3.984V12l2.484-1.5 2.531 1.5V3.984H5.999zm12-1.968q.797 0 1.406.586t.609 1.383v16.031q0 .797-.609 1.383T18 21.985H6q-.797 0-1.406-.586t-.609-1.383V3.985q0-.797.609-1.383T6 2.016h12z"/></svg>
